X:1
T:Wyznawca pański
T:                yznawca pański Iste confessor 
T:m. Giovanni Mateo Asola (ok. 1532-1609) 
T:t. VIII w. tłum. Stanisław Grochowski (1524 -1612) Hymny, prozy i cantica kościelne, Kraków 1599 
C:Giovanni Mateo Asola
%%score [ 1 2 3 4 ]
L:1/8
Q:1/2=80
M:3/2
K:C
V:1 treble nm="S." snm="S."
V:2 treble nm="A." snm="A."
V:3 treble-8 nm="T." snm="T."
V:4 bass nm="B." snm="B."
V:1
 ((!stemless!G2 !stemless!A2 !stemless!G2)) !stemless!E2 !stemless!F2 !stemless!G2 !stemless!G2 !stemless!A2 !stemless!G2 !stemless!A2 !stemless!B2 !stemless!c2 !breath!!stemless!G2 | %1
w: 1.Wy- * * zna- wca pań- ski ten bło- go- sła- wio- ny|
w: 3.Grób * * je- go i dziś sła- wny,  bo- wiem  któ- rzy|
w: 5.Bądź * * po- zdro- wio- ny, bądź  po- chwa- lon Pa- nie,|
 !stemless!c2 !stemless!A2 !stemless!c2 ((!stemless!B2 !stemless!A2)) !stemless!A2 !stemless!A2 !stemless!G2 !stemless!E2 !stemless!F2 !stemless!G2 !breath!!stemless!G2 | %2
w: Któ- re- go sła- * wi ko- ściół na- wsze- stro- ny,|
w: Tam na- wie- dza- * ją u- ło- mni i cho- rzy,|
w: Któ- ry nad nie- * bem ma- jąc swe mie- szka- nie,|
 !stemless!G2 !stemless!E2 !stemless!G2 ((!stemless!F2 !stemless!E2 !stemless!D2)) !stemless!C2 !stemless!G2 !stemless!G2 !stemless!A2 !stemless!B2 !stemless!A2 !breath!!stemless!G2 | %3
w: Dzi- siej- sze- go * * dnia za- słu- żył już o- nę|
w: Rza- dko się tra- * * fia że- by kto był co- by|
w: Rzą- dzisz   o- gro * * mnej  tej świe- ckiej ma- chi- ny|
 ((!stemless!A2 !stemless!B2 !stemless!c2 !stemless!B2 !stemless!A2 !stemless!G2)) !stemless!A2 !stemless!B2 !stemless!A2 !breath!!stemless!G2 || %4
w: W nie- * * * * * bie ko- ro- nę.|
w: Nie * * * * * zbył cho- ro- by.|
w: Wszy- * * * * * stkie  kra- i- ny.|
 ((!stemless!G2 !stemless!A2 !stemless!G2)) ((!stemless!F2 !stemless!G2)) z2 | %5
w: |
w: |
w: A- * * men. *|
[M:4/2][Q:1/2=120] ((G8 A8 | G8)) E4 F4 | G8 G8 | A4 G4 A4 B4 | c8 G8 | c8 A4 c4 | B8 A8 | %12
w: 2.Któ- *|* ry tu|wszy- stkim|świe- cił po- bo-|żno- ścią,|Po- ko- rą,|wsty- dem,|
w: 4.Zkąd *|* mu-  dziś|chór nasz|tę hi- mnę za-|czy- na,|I sła- wę|je- go|
w: |||||||
 A4 G4 E4 ^F4 | G8 G8 | G8 E4 G4 | ((F4 E4 D8)) | C8 G4 G4 | A4 F4 A8 | G8 ((A4 B4 | c8 A8)) | %20
w: pa- nień-  stwem, trze-|źwo- ścią,|Do- kąd ży-|wo- * *|tne cie- pło|o- ży- wia-|ło Czło- *||
w: chę- tli- wie wspo-|mi- na,|A- by więc|je- * *|go za- słu-|gi i mo-|dły Nas *||
w: ||||||||
 _B4 B4 A8 | G16 |] %22
w: nki- i cia-|ło.|
w: w nie- bo wwio-|dły.|
w: ||
V:2
 z26 | z24 | z26 | z20 || z12 |[M:4/2] ((D16 | B,8)) C4 D4 | E8 D8 | F4 E4 F4 F4 | E8 E8 | %10
w: |||||2.Któ-|* ry tu|wszy- stkim|świe- cił po- bo-|żno- ścią,|
w: |||||4.Zkąd|* mu dziś|chór nasz|tę hi- mnę za-|czy- na,|
 E8 D4 E4 | E8 E8 | D4 B,4 E4 D4 | E8 D8 | D8 C4 C4 | A,4 C8 B,4 | C8 E4 D4 | D4 D4 E8 | %18
w: Po- ko- rą,|wsty- dem,|pa- nień- stwem, trze-|źwo- ścią,|Do- kąd ży-|wo- * *|tne cie- pło|o- ży- wia-|
w: I sła- wę|je- go|chę- tli- wie wspo-|mi- na|A- by więc|je- * *|go za- słu-|gi i mo-|
 E8 ((E4 G4- | G4)) E4 F8 | D16 | D16 |] %22
w: ło Czło- *|* nki i|cia-|ło.|
w: dły Nas *|* w nie- bo|wwio-|dły.|
V:3
 z26 | z24 | z26 | z20 || z12 |[M:4/2] ((G8 ^F8)) | G8 G4 A4 | c8 B8 | c4 c4 c4 d4 | G8 c8 | %10
w: |||||2.Któ- *|* ry tu|wszy- stkim|świe- cił po- bo-|żno- ścią,|
w: |||||4.Zkąd *|* mu dziś|chór nasz|tę hi- mnę za-|czy- na,|
 G8 F4 A4 | ^G8 A8 | F4 G4 c4 A4 | c8 B8 | B8 G6 E2 | F4 G6 F2 D4 | E8 c4 B4 | A4 A4 c8 | %18
w: Po- ko- rą,|wsty- dem,|pa- nień- stwem, trze-|źwo- ścią,|Do- kąd ży-|wo- * * *|tne cie- pło|o- ży- wia-|
w: I sła- wę|je- go|chę- tli- wie wspo-|mi- na|A- by więc|je- * * *|go za- słu-|gi i mo-|
 B8 ((c4 d4 | e4 c8)) ((d2 c2)) | ((_B2 A2)) ((G8"^#" ^F4)) | G16 |] %22
w: ło Czło- *|* * nki *|i * cia- *|ło.|
w: dły Nas *|* * w nie- *|bo * wwio- *|dły.|
V:4
 z26 | z24 | z26 | z20 || z12 |[M:4/2] ((G,,8 D,8)) | E,8 E,4 D,4 | C,8 G,8 | F,4 C,4 F,4 D,4 | %9
w: |||||3.Któ- *|* ry tu|wszy- stkim|świe- cił po- bo-|
w: |||||4.Zkąd *|* mu dziś|chór nasz|tę hi- mnę za-|
 C,8 C,8 | C,8 D,4 A,,4 | E,8 A,,8 | D,4 E,4 C,4 D,4 | C,8 G,,8 | G,8 ((C,2 D,2)) ((E,2 C,2)) | %15
w: żno- ścią,|Po- ko- rą,|wsty- dem,|pa- nień- stwem, trze-|źwio- ścią,|Do- kąd * ży- *|
w: czy- na,|I sła- wę|je- go|chę- tli- wie wspo-|mi- na|A- by * więc *|
 ((D,4 C,4 G,,8)) | C,8 C,4 G,,4 | D,4 D,4 A,,8 | E,8 (((A,4 G,4 | C,8))) F,4 D,4 | ((G,8 D,8)) | %21
w: wo- * *|tne cie- pło-|o- ży- wia-|ło Czło- *|* nki i|cia- *|
w: je- * *|go za- słu-|gi i mo-|dły Nas *|* w nie- bo|wwio- *|
 G,,16 |] %22
w: ło.|
w: dły.|

